X:3196
T:Colledge Hornpipe. WM.011
T:College Hornpipe. WM.011
M:C
L:1/4
Q:180
S:Wm.Mittell's MS,New Romney,Kent,1799
R:Hornpipe
O:England
A:Kent
N:
Z:vmp.Chris Partington
K:CDorian
cBA|B2B,4FE|DFB4(3dcB|c2C4c-B|Acf2-f2ga|!
bagf gfed|ecde BAGF|GBAc Bdce|d2B2-B2:|!
|:F-E|DFBF DFBF|G2E2-E2G-F|EGcG EGcG|A2F2-F2e-d|!
efg2-gfed|ecde BAGF|(3GAB (3ABc|(3Bcd (3cde|d2B2-B2:|]


